X: 39527
T: Tawny Gate Corner
R: jig
M: 6/8
K: Amajor
e|:a2 a g2 e|fga g2 e|a2 f ecA|B3 B2g|
a2 a g2 e|fga g2 e|a2 f edc|1 A3 A2 e:|2 A3 A2 d||
|:c2 A c2 e|fga g2 e|a2 f ecA|B3 B2 d|
c2 A c2 e|fga g2 e|a2 f edc|1 A3 A2 d:|2 A3 A3||

